X:3
T:caingc y cathreinwr
S:ifor ceri ms
A:morgannwg
M:C
L:1/4
Q:1/4=180
W:o blin yw damshel pigau dur
W:a blin yw cur y galon
W:ond blinach ydyw colli run
W:a hi ei hun yn foddlon
K:C
c/d/|eedB|ccc>B|ccBA|^GEzA/B/|
ccc>c|dde>d|cBcA|^GEA2|B2A2:|
